lib/logo_tmp/nrk-logo-nrk-mp3-title-below.svg

<svg width="35" height="35" viewBox="0 0 35 35" fill="none" xmlns="http://www.w3.org/2000/svg">
<path fill-rule="evenodd" clip-rule="evenodd" d="M0 0H34.6667V34.6667H0V0ZM12.1152 15.9845C12.4246 15.7796 12.787 15.6692 13.1581 15.6667H15.4504V27.23H12.2726V19.39L9.54935 21.4392L6.82609 19.39V23.4826L3.66661 25.8573V15.6667H5.93968C6.31078 15.6692 6.67313 15.7796 6.98257 15.9845C7.24498 16.1472 9.38564 17.9643 9.54887 18.103C9.71161 17.9629 11.8528 16.1458 12.1152 15.9845ZM15.9102 15.6667H19.4799L19.6942 16.0165L19.6944 16.0168L19.6951 16.018L19.6955 16.0186L19.6965 16.0203L19.6969 16.0209L19.6983 16.0231C21.1738 18.4313 21.1851 18.4498 21.427 18.8609C21.5417 19.0086 21.6048 19.1898 21.6065 19.3768C21.6082 19.5638 21.5486 19.7462 21.4366 19.896C21.2012 20.287 19.4799 23.1018 19.4799 23.1018H15.9102L17.9743 19.7179C18.0471 19.6187 18.0853 19.4983 18.0829 19.3753C18.0806 19.2523 18.0378 19.1334 17.9613 19.0371C17.9382 18.9962 15.9102 15.6667 15.9102 15.6667ZM30.6599 17.583C30.54 17.3784 29.4774 15.6667 29.4774 15.6667H21.8372L23.506 18.4651H27.5298L25.8687 21.1869L27.7209 24.2958L25.9351 27.2329H29.1967C29.5607 26.6371 30.0499 25.8153 30.3697 25.278C30.5105 25.0414 30.6185 24.86 30.6685 24.7773C30.781 24.6271 30.841 24.4441 30.8393 24.2565C30.8377 24.0689 30.7745 23.887 30.6594 23.7388C30.5763 23.5973 30.3106 23.1709 30.0008 22.6737C29.7001 22.1912 29.3579 21.642 29.1008 21.2221C29.1008 21.2221 30.5053 18.8946 30.669 18.622C30.7816 18.4718 30.8417 18.2887 30.84 18.101C30.8384 17.9133 30.7751 17.7313 30.6599 17.583ZM23.3101 21.6068C22.8074 22.4282 21.9663 23.8043 21.8088 24.0729C21.698 24.2156 21.637 24.3908 21.6354 24.5714C21.6337 24.7521 21.6915 24.9283 21.7997 25.073C21.9571 25.3349 22.805 26.7221 23.3101 27.5483C23.8152 26.7221 24.6626 25.3335 24.8205 25.073C24.9287 24.9283 24.9864 24.7521 24.9848 24.5714C24.9831 24.3908 24.9222 24.2156 24.8113 24.0729C24.6539 23.8043 23.8147 22.4282 23.3101 21.6068ZM7.99994 7.48948V14.0208H10.1435V7.48948H7.99994ZM14.2927 14.0208L13.0599 8.52897C13.0006 8.23825 12.8431 7.97681 12.6138 7.78847C12.3849 7.5919 12.0922 7.48556 11.7905 7.48948H10.4747L11.9467 14.0208H14.2927ZM14.6147 7.48948V14.0208H16.7583V7.48948H14.6147ZM17.7197 9.79844C17.919 9.91504 18.1462 9.97546 18.3771 9.97324C18.3771 9.97324 18.3771 9.97324 18.377 9.97324H18.3773C18.3772 9.97324 18.3772 9.97324 18.3771 9.97324C18.6068 9.97593 18.8328 9.91545 19.0305 9.79844C19.2252 9.68376 19.3869 9.52051 19.4997 9.32467C19.6164 9.12525 19.6768 8.89799 19.6746 8.66698C19.6771 8.43737 19.6167 8.21146 19.4997 8.01385C19.3857 7.82014 19.2242 7.65867 19.0305 7.54469C18.8328 7.42788 18.6069 7.36741 18.3773 7.36988C18.1463 7.36778 17.9191 7.42819 17.7197 7.54469C17.524 7.65768 17.3607 7.81928 17.2458 8.01385C17.1288 8.21141 17.0683 8.43735 17.0709 8.66698C17.0686 8.89801 17.1291 9.12531 17.2458 9.32467C17.3595 9.52137 17.5229 9.68476 17.7197 9.79844ZM20.0058 7.48948V14.0208H22.1496V7.48948H20.0058ZM25.0014 11.2841C24.9154 11.1402 24.8694 11.065 24.8634 11.0587H24.8631C24.7973 10.9706 24.7589 10.865 24.7528 10.7551C24.7567 10.6505 24.7885 10.5488 24.8448 10.4606L26.6666 7.48933H24.3114C24.1643 7.72871 24.0308 7.94642 23.911 8.14246C23.7919 8.3387 23.6647 8.54876 23.5296 8.77261C23.3944 8.99645 23.2609 9.2157 23.1291 9.43034C22.9972 9.64499 22.8822 9.83048 22.7841 9.98686C22.6859 10.1432 22.6185 10.2521 22.5817 10.3134C22.4945 10.4451 22.4437 10.5975 22.4346 10.7551C22.446 10.9194 22.4999 11.0779 22.5909 11.2151C22.6276 11.2704 22.6936 11.3777 22.7888 11.5371C22.8837 11.6963 22.9971 11.8818 23.1291 12.0936C23.261 12.3054 23.3945 12.5231 23.5296 12.7467C23.6643 12.9706 23.7914 13.1791 23.911 13.3723C24.0306 13.5654 24.1641 13.7816 24.3114 14.0208H26.6666C26.4946 13.7388 26.3412 13.4858 26.2066 13.2619C26.0715 13.0379 25.9273 12.8003 25.774 12.5489C25.6208 12.2976 25.4752 12.06 25.3372 11.836C25.1993 11.612 25.0874 11.428 25.0014 11.2841Z" fill="white"/>
</svg>

<svg xmlns="http://www.w3.org/2000/svg" viewBox="0 0 35 35"><path fill="#fff" fill-rule="evenodd" d="M0 0h34.667v34.667H0V0Zm12.115 15.985c.31-.205.672-.316 1.043-.318h2.292V27.23h-3.177v-7.84l-2.724 2.05-2.723-2.05v4.093l-3.16 2.374v-10.19H5.94c.37.002.733.113 1.043.318.262.162 2.403 1.98 2.566 2.118.163-.14 2.304-1.957 2.566-2.119Zm3.795-.318h3.57l.214.35.001.001.002.002.001.003c1.476 2.408 1.487 2.427 1.729 2.838a.854.854 0 0 1 .01 1.035c-.236.391-1.957 3.206-1.957 3.206h-3.57l2.064-3.384a.56.56 0 0 0-.013-.68c-.023-.042-2.05-3.371-2.05-3.371Zm14.75 1.916c-.12-.205-1.183-1.916-1.183-1.916h-7.64l1.669 2.798h4.024l-1.661 2.722 1.852 3.109-1.786 2.937h3.262a221.948 221.948 0 0 0 1.472-2.456.856.856 0 0 0-.01-1.038c-.083-.142-.348-.568-.658-1.065-.3-.483-.643-1.032-.9-1.452l1.568-2.6a.856.856 0 0 0-.01-1.039Zm-7.35 4.024c-.503.821-1.344 2.197-1.501 2.466a.825.825 0 0 0-.01 1c.158.262 1.006 1.65 1.511 2.475.505-.826 1.353-2.214 1.51-2.475a.825.825 0 0 0-.009-1c-.157-.269-.996-1.645-1.5-2.466ZM8 7.489v6.532h2.143V7.489H8Zm6.293 6.532L13.06 8.529a1.293 1.293 0 0 0-.446-.74 1.239 1.239 0 0 0-.824-.3h-1.315l1.472 6.532h2.346Zm.322-6.532v6.532h2.143V7.489h-2.143ZM17.72 9.8c.199.116.426.176.657.174.23.003.456-.058.654-.175a1.307 1.307 0 0 0 .644-1.131 1.255 1.255 0 0 0-.175-.653 1.323 1.323 0 0 0-.47-.47 1.258 1.258 0 0 0-.653-.174 1.312 1.312 0 0 0-1.132.644 1.254 1.254 0 0 0-.174.653 1.296 1.296 0 0 0 .649 1.131Zm2.286-2.31v6.532h2.144V7.489h-2.144ZM25 11.284a5.12 5.12 0 0 0-.138-.225.56.56 0 0 1-.11-.304.588.588 0 0 1 .092-.294l1.822-2.972H24.31a313.335 313.335 0 0 0-.781 1.284 105.092 105.092 0 0 1-.948 1.54.893.893 0 0 0-.147.442.951.951 0 0 0 .156.46c.037.055.103.163.198.322.095.16.208.345.34.557.132.211.265.43.4.653.135.224.262.432.382.625l.4.649h2.356c-.172-.282-.326-.535-.46-.76a171.964 171.964 0 0 0-.87-1.425c-.138-.224-.25-.408-.336-.552Z" clip-rule="evenodd"/></svg>
